contributed-vectors/macrofactor.svg

<svg xmlns="http://www.w3.org/2000/svg" xml:space="preserve" style="fill-rule:evenodd;clip-rule:evenodd;stroke-linejoin:round;stroke-miterlimit:2" viewBox="0 0 192 192"><circle cx="96" cy="96" r="88" style="fill:#56595b"/><path d="m.08 580.731 96.941 59.173h1.059V514.912l-98-59.82M586 59.929v-.275L683.729 0H684v581.551L588.245 640H586V174.743L342 323.572 98 174.634v110.567l125.154 76.394V476.41L98 400.015v.178l-98-59.82V0h1.562l1.771 2.034L342 208.758 586 59.929Z" style="fill:#ececec" transform="matrix(.07428 0 0 .0778 70.598 71.105)"/></svg>

<?xml version="1.0" encoding="UTF-8" standalone="no"?>
<!DOCTYPE svg PUBLIC "-//W3C//DTD SVG 1.1//EN" "http://www.w3.org/Graphics/SVG/1.1/DTD/svg11.dtd">
<svg width="100%" height="100%" viewBox="0 0 192 192" version="1.1" xmlns="http://www.w3.org/2000/svg" xmlns:xlink="http://www.w3.org/1999/xlink" xml:space="preserve" xmlns:serif="http://www.serif.com/" style="fill-rule:evenodd;clip-rule:evenodd;stroke-linejoin:round;stroke-miterlimit:2;">
    <g id="MacroFactor">
        <g>
            <circle cx="96" cy="96" r="88" style="fill:rgb(86,89,91);"/>
        </g>
        <g id="Logo" transform="matrix(0.0742759,0,0,0.0777965,70.5976,71.1051)">
            <path d="M0.08,580.731L97.021,639.904L98.08,639.904L98.08,514.912L0.08,455.092" style="fill:rgb(236,236,236);"/>
            <path id="Body" d="M586,59.929L586,59.654L683.729,0L684,0L684,581.551L588.245,640L586,640L586,174.743L342,323.572L98,174.634L98,285.201L223.154,361.595L223.154,476.41L98,400.015L98,400.193L0,340.373L0,0L1.562,0L3.333,2.034L342,208.758L586,59.929Z" style="fill:rgb(236,236,236);"/>
        </g>
    </g>
</svg>
